X: 9
T: Jack Tar's Delight
%C: Mr. Gray
%R: reel
B: Mr. Gray "24 Country Dances for the Year 1803" p.5 #1
S: http://imslp.org/wiki/24_Country_Dances_for_the_Year_1803_(Various)  2013-12-2
Z: 2013 John Chambers <jc:trillian.mit.edu>
M: 2/4
L:  1/16
K: F
|:\
f2af d/d/d d2 | fdcA G/G/G Ge |\
f2af d2fd | cBAG F2F2 :|
|:\
G2BG Acde | fgaA G/G/G G2 |\
AFcA defd | cAGA F/F/F F2 :|
% - - - - - - - - - - - - - - - - - - - - - - - - -
%%begintext align
%% 1t & 2d Cu: set hands across back again lead
%% down the middle up again right & left :|:
%%endtext
